X: 25
T:Tideswell Processional
% Nottingham Music Database
S:Eric Foxley
M:4/4
L:1/4
K:G
d|"G"B/2d/2d/2g/2 g/2d/2d/2g/2|"C"g/2e/2"D7"d/2c/2 "G"BG:|
"C"c/2d/2(3e/2d/2c/2 "G"B/2d/2d|"C"c/2d/2(3e/2d/2c/2 "G"BG|\
"C"c/2d/2(3e/2d/2c/2 "G"B/2d/2d|"C"e/2g/2"D7"f/2a/2 "G"g||


